X: 62
T: 5 Tune, The
R: reel
M: 4/4
K: Emajor
M:5/2
|:BGFE E3F GBcB GBc2 c2Bc|eccB B3c ecec cBBc BGFG|
BGFE E3F GBcB GBc2 c2Bc|eccB B3c ecfB B3c [1BGFG:|2 effe||
M:5/4
a3 g gf fe ed|e2 dc cB Bc eg|a3 g gf fe ed|e2 de- ef eg eg|
a3 g gf fe ed|e2 dc cB Bc eg|a3 g gf fe eg|ab ag fe dc BA||

